_includes/icons/color-clouds.svg

<svg fill="#666" height="50" viewBox="0 0 48 48" width="50" xmlns="http://www.w3.org/2000/svg"><g fill="#bbdefb"><path d="m38 20.5c0 4.695313-3.804687 8.5-8.5 8.5-4.695312 0-8.5-3.804687-8.5-8.5 0-4.695312 3.804688-8.5 8.5-8.5 4.695313 0 8.5 3.804688 8.5 8.5z"/><path d="m44 28.894531c0 3.863282-3.132812 7-7 7-3.867187 0-7-3.136718-7-7 0-3.867187 3.132813-7 7-7 3.867188 0 7 3.132813 7 7z"/><path d="m18 29c0 3.867188-3.132812 7-7 7-3.867187 0-7-3.132812-7-7 0-3.867187 3.132813-7 7-7 3.867188 0 7 3.132813 7 7z"/><path d="m24 21.5c0 3.589844-2.910156 6.5-6.5 6.5s-6.5-2.910156-6.5-6.5 2.910156-6.5 6.5-6.5 6.5 2.910156 6.5 6.5z"/><path d="m32 26.894531c0 3.863282-3.132812 7-7 7-3.867187 0-7-3.136718-7-7 0-3.867187 3.132813-7 7-7 3.867188 0 7 3.132813 7 7z"/><path d="m7 32c0 2.210938 1.789063 4 4 4h25c2.210938 0 4-1.789062 4-4v-1c0-2.210937-1.789062-4-4-4h-25c-2.210937 0-4 1.789063-4 4z"/></g></svg>

<svg xmlns="http://www.w3.org/2000/svg" viewBox="0 0 48 48" width="50" height="50" fill="#666"><g fill="#bbdefb"><path d="M 38 20.5 C 38 25.195313 34.195313 29 29.5 29 C 24.804688 29 21 25.195313 21 20.5 C 21 15.804688 24.804688 12 29.5 12 C 34.195313 12 38 15.804688 38 20.5 Z"/><path d="M 44 28.894531 C 44 32.757813 40.867188 35.894531 37 35.894531 C 33.132813 35.894531 30 32.757813 30 28.894531 C 30 25.027344 33.132813 21.894531 37 21.894531 C 40.867188 21.894531 44 25.027344 44 28.894531 Z"/><path d="M 18 29 C 18 32.867188 14.867188 36 11 36 C 7.132813 36 4 32.867188 4 29 C 4 25.132813 7.132813 22 11 22 C 14.867188 22 18 25.132813 18 29 Z"/><path d="M 24 21.5 C 24 25.089844 21.089844 28 17.5 28 C 13.910156 28 11 25.089844 11 21.5 C 11 17.910156 13.910156 15 17.5 15 C 21.089844 15 24 17.910156 24 21.5 Z"/><path d="M 32 26.894531 C 32 30.757813 28.867188 33.894531 25 33.894531 C 21.132813 33.894531 18 30.757813 18 26.894531 C 18 23.027344 21.132813 19.894531 25 19.894531 C 28.867188 19.894531 32 23.027344 32 26.894531 Z"/><path d="M 7 32 C 7 34.210938 8.789063 36 11 36 L 36 36 C 38.210938 36 40 34.210938 40 32 L 40 31 C 40 28.789063 38.210938 27 36 27 L 11 27 C 8.789063 27 7 28.789063 7 31 Z"/></g></svg>
